Origami/24x24/apps/multimedia-player.svg

<svg width="24" height="24" version="1" xmlns="http://www.w3.org/2000/svg">
 <rect transform="scale(-1,1)" x="-20" y="2.5" width="16" height="20" rx="1" ry="1" style="opacity:.2"/>
 <rect transform="scale(-1,1)" x="-20" y="2" width="16" height="20" rx="1" ry="1" style="fill:#8e8e8e"/>
 <rect x="7" y="5" width="10" height="6" rx="0" ry="0" style="opacity:.5"/>
 <path d="m9.5 14v6l6-3" style="opacity:.2"/>
 <path d="m9.5 13.5v6l6-3" style="fill:#e4e4e4"/>
 <path d="m5 2c-0.554 0-1 0.446-1 1v0.5c0-0.554 0.446-1 1-1h14c0.554 0 1 0.446 1 1v-0.5c0-0.554-0.446-1-1-1z" style="fill:#ffffff;opacity:.2"/>
</svg>

<svg xmlns="http://www.w3.org/2000/svg" width="24" height="24" version="1">
 <rect style="opacity:0.2" width="16" height="20" x="-20" y="2.5" rx="1" ry="1" transform="scale(-1,1)"/>
 <rect style="fill:#8e8e8e" width="16" height="20" x="-20" y="2" rx="1" ry="1" transform="scale(-1,1)"/>
 <rect style="opacity:0.5" width="10" height="6" x="7" y="5" rx="0" ry="0"/>
 <path style="opacity:0.2" d="M 9.5,14 V 20 L 15.5,17"/>
 <path style="fill:#cccccc" d="M 9.5,13.5 V 19.5 L 15.5,16.5"/>
 <path style="opacity:0.2;fill:#ffffff" d="M 5,2 C 4.446,2 4,2.446 4,3 V 3.5 C 4,2.946 4.446,2.5 5,2.5 H 19 C 19.554,2.5 20,2.946 20,3.5 V 3 C 20,2.446 19.554,2 19,2 Z"/>
</svg>
